icons/op-backlogs-16.svg

<svg width="16" height="16" viewBox="0 0 16 16" fill="none" xmlns="http://www.w3.org/2000/svg">
<path d="M12.0841 6.3065C12.3445 6.57539 12.7666 6.57539 13.027 6.3065C13.2873 6.03761 13.2873 5.60173 13.027 5.33284L12.165 4.44262H13.4444C13.5672 4.44262 13.6667 4.54538 13.6667 4.67213V12.0164C13.6667 12.1431 13.5672 12.2459 13.4444 12.2459H11.6667C11.2985 12.2459 11 12.5542 11 12.9344C11 13.3147 11.2985 13.623 11.6667 13.623H13.4444C14.3036 13.623 15 12.9037 15 12.0164V4.67213C15 3.78485 14.3036 3.06557 13.4444 3.06557L12.165 3.06557L13.027 2.17538C13.2873 1.9065 13.2873 1.47054 13.027 1.20166C12.7666 0.932779 12.3445 0.932779 12.0841 1.20166L10.0841 3.26724C9.8238 3.53612 9.8238 3.97207 10.0841 4.24096L12.0841 6.3065Z" fill="#24292F"/>
<path fill-rule="evenodd" clip-rule="evenodd" d="M7.44444 1.91803C8.30356 1.91803 9 2.63731 9 3.52459V3.98361C9 4.87088 8.30355 5.59016 7.44444 5.59016H2.55556C1.69644 5.59016 1 4.87088 1 3.98361V3.52459C1 2.63731 1.69645 1.91803 2.55556 1.91803H7.44444ZM7.66667 3.52459C7.66667 3.39784 7.56717 3.29508 7.44444 3.29508H2.55556C2.43283 3.29508 2.33333 3.39784 2.33333 3.52459L2.33333 3.98361C2.33333 4.11036 2.43283 4.21311 2.55556 4.21311H7.44444C7.56717 4.21311 7.66667 4.11036 7.66667 3.98361V3.52459Z" fill="#24292F"/>
<path fill-rule="evenodd" clip-rule="evenodd" d="M11.6667 8.11475C11.6667 7.22748 10.9702 6.5082 10.1111 6.5082H4.33333C3.47422 6.5082 2.77778 7.22748 2.77778 8.11475V8.57377C2.77778 9.46105 3.47422 10.1803 4.33333 10.1803H10.1111C10.9702 10.1803 11.6667 9.46105 11.6667 8.57377V8.11475ZM10.1111 7.88525C10.2338 7.88525 10.3333 7.988 10.3333 8.11475V8.57377C10.3333 8.70052 10.2338 8.80328 10.1111 8.80328H4.33333C4.2106 8.80328 4.11111 8.70052 4.11111 8.57377V8.11475C4.11111 7.988 4.2106 7.88525 4.33333 7.88525H10.1111Z" fill="#24292F"/>
<path fill-rule="evenodd" clip-rule="evenodd" d="M9.88889 12.9344C9.88889 12.0471 9.19244 11.3279 8.33333 11.3279H2.55556C1.69645 11.3279 1 12.0471 1 12.9344V13.3934C1 14.2807 1.69644 15 2.55556 15H8.33333C9.19244 15 9.88889 14.2807 9.88889 13.3934V12.9344ZM8.33333 12.7049C8.45606 12.7049 8.55556 12.8077 8.55556 12.9344V13.3934C8.55556 13.5202 8.45606 13.623 8.33333 13.623H2.55556C2.43283 13.623 2.33333 13.5202 2.33333 13.3934L2.33333 12.9344C2.33333 12.8077 2.43283 12.7049 2.55556 12.7049H8.33333Z" fill="#24292F"/>
</svg>

<svg xmlns="http://www.w3.org/2000/svg" width="16" height="16" viewBox="0 0 16 16"><path d="M12.084 6.306a.652.652 0 0 0 .943 0 .704.704 0 0 0 0-.973l-.862-.89h1.279c.123 0 .223.102.223.229v7.344c0 .127-.1.23-.223.23h-1.777a.678.678 0 0 0-.667.688c0 .381.299.689.667.689h1.777c.86 0 1.556-.719 1.556-1.607V4.672c0-.887-.696-1.606-1.556-1.606h-1.279l.862-.891a.704.704 0 0 0 0-.973.652.652 0 0 0-.943 0l-2 2.065a.706.706 0 0 0 0 .974l2 2.065Zm-4.64-4.388c.86 0 1.556.719 1.556 1.607v.459c0 .887-.696 1.606-1.556 1.606H2.556C1.696 5.59 1 4.871 1 3.984v-.459c0-.888.696-1.607 1.556-1.607Zm.223 1.607c0-.127-.1-.23-.223-.23H2.556a.227.227 0 0 0-.223.23v.459c0 .126.1.229.223.229h4.888a.226.226 0 0 0 .223-.229Z"/><path d="M11.667 8.115v.459c0 .887-.697 1.606-1.556 1.606H4.333c-.859 0-1.555-.719-1.555-1.606v-.459c0-.888.696-1.607 1.555-1.607h5.778c.859 0 1.556.719 1.556 1.607Zm-1.556-.23H4.333a.227.227 0 0 0-.222.23v.459c0 .127.1.229.222.229h5.778a.225.225 0 0 0 .222-.229v-.459a.226.226 0 0 0-.222-.23Zm-.222 5.049v.459c0 .888-.697 1.607-1.556 1.607H2.556C1.696 15 1 14.281 1 13.393v-.459c0-.887.696-1.606 1.556-1.606h5.777c.859 0 1.556.719 1.556 1.606Zm-1.556-.229H2.556a.226.226 0 0 0-.223.229v.459c0 .127.1.23.223.23h5.777a.227.227 0 0 0 .223-.23v-.459c0-.126-.1-.229-.223-.229Z"/></svg>
